X:57
T:The Pancakes are Burned
R:reel
C:Marie Szwark
M:C|
K:D
"D"fgaf gfeg|f~d3 "F#/C#"edc^A|
"Bm"~B3c defd|"G"cdef "A"gbag|
"D"fgaf gfeg|f~d3 "F#/C#"edc^A|
"Bm"~B3c "G"defd|1 "A"edce "G/A"d3e:|2 "A"edce
"D"d3A||
"G/B"B~G3 DGBd|"F#"e~c3 ^ABce|
"Bm"dBAF "G"GFED|"F#"CB,^A,C F3^A|
"G"B~G3 DGBd|"A"e~c3 Aceg|
"D"afge fdbg|1 "F#m/C#"faeg fedc:|2 "A"fedc "G/A"d4||
